public/sealos-full.svg

<svg xmlns="http://www.w3.org/2000/svg" fill="none" viewBox="0 0 1928 548">
  <path
    fill="url(#a)"
    d="M111.487 258.028c29.315 42.861 89.965 39.057 89.965 39.057-15.162-14.71-25.018-28.151-26.029-66.447-1.011-38.295-22.744-48.44-22.744-48.44 38.918-24.6 25.019-51.23 23.755-80.902-.758-18.514 10.108-32.209 18.701-40.07-49.454 7.433-94.14 33.737-124.743 73.426-30.602 39.689-44.76 89.7-39.52 139.607 3.538-9.89 53.575-55.794 80.615-16.231Z"
  />
  <path
    fill="url(#b)"
    d="M470.585 181.693a91.284 91.284 0 0 0-4.801-12.174v-.253a88.852 88.852 0 0 0-41.498-41.117 88.42 88.42 0 0 0-57.968-6.374 88.664 88.664 0 0 0-49.384 31.124 89.213 89.213 0 0 0-19.456 55.17 88.238 88.238 0 0 0 2.022 18.767 1.78 1.78 0 0 1 0 .253c.505 2.537 1.263 5.073 2.021 7.609a137.678 137.678 0 0 1 2.581 54.673 137.53 137.53 0 0 1-18.921 51.336 137.018 137.018 0 0 1-37.412 39.827 136.49 136.49 0 0 1-49.949 21.982 136.258 136.258 0 0 1-54.537.637 136.457 136.457 0 0 1-50.445-20.809 136.976 136.976 0 0 1-38.326-38.943 137.487 137.487 0 0 1-20.107-50.88 227.483 227.483 0 0 0 32.571 88.459 226.611 226.611 0 0 0 65.583 67.54 225.721 225.721 0 0 0 87.273 34.962 225.387 225.387 0 0 0 93.9-3.65 225.844 225.844 0 0 0 84.317-41.633 226.79 226.79 0 0 0 60.18-72.428 227.61 227.61 0 0 0 25.655-90.722 227.728 227.728 0 0 0-13.299-93.356Z"
  />
  <path
    fill="url(#c)"
    fill-rule="evenodd"
    d="M432.935 242.812c0 110.512-89.27 200.1-199.39 200.1-58.453 0-111.032-25.243-147.502-65.459a136.436 136.436 0 0 0 57.25 25.698 136.24 136.24 0 0 0 54.536-.637 136.48 136.48 0 0 0 49.949-21.981 137.009 137.009 0 0 0 37.412-39.828 137.485 137.485 0 0 0 18.921-51.335 137.677 137.677 0 0 0-2.58-54.673c-.758-2.537-1.516-5.073-2.022-7.609a1.78 1.78 0 0 0 0-.253 88.37 88.37 0 0 1-2.022-18.768 89.215 89.215 0 0 1 19.457-55.169 88.656 88.656 0 0 1 49.384-31.124 88.38 88.38 0 0 1 24.358-2.146c26.471 33.962 42.249 76.724 42.249 123.184Z"
    clip-rule="evenodd"
  />
  <path
    fill="#111824"
    d="M843.61 209.56c-1.297-12.14-6.765-21.593-16.404-28.359-9.546-6.765-21.964-10.148-37.256-10.148-10.751 0-19.972 1.622-27.665 4.865-7.692 3.244-13.577 7.646-17.655 13.207-4.078 5.561-6.163 11.909-6.255 19.045 0 5.932 1.343 11.075 4.031 15.431 2.78 4.356 6.534 8.063 11.26 11.121 4.727 2.966 9.963 5.468 15.709 7.507a168.95 168.95 0 0 0 17.377 5.144l26.691 6.673c10.751 2.502 21.085 5.885 31.001 10.148 10.009 4.263 18.953 9.638 26.83 16.126 7.971 6.487 14.273 14.319 18.907 23.494 4.634 9.175 6.95 19.925 6.95 32.251 0 16.682-4.263 31.372-12.789 44.069-8.526 12.604-20.853 22.474-36.978 29.61-16.034 7.044-35.45 10.566-58.248 10.566-22.15 0-41.381-3.43-57.692-10.288-16.219-6.858-28.916-16.867-38.091-30.027-9.082-13.161-13.994-29.194-14.736-48.1h50.741c.742 9.917 3.8 18.165 9.176 24.745 5.375 6.58 12.372 11.492 20.991 14.736 8.712 3.243 18.443 4.865 29.194 4.865 11.214 0 21.037-1.668 29.471-5.004 8.526-3.429 15.199-8.156 20.018-14.18 4.82-6.117 7.276-13.253 7.368-21.409-.092-7.414-2.27-13.53-6.533-18.35-4.264-4.912-10.241-8.989-17.934-12.233-7.599-3.337-16.496-6.302-26.691-8.897l-32.391-8.341c-23.447-6.024-41.983-15.153-55.606-27.386-13.531-12.327-20.297-28.684-20.297-49.073 0-16.775 4.542-31.464 13.624-44.069 9.175-12.604 21.64-22.381 37.395-29.332 15.756-7.044 33.596-10.565 53.522-10.565 20.204 0 37.905 3.521 53.104 10.565 15.292 6.951 27.294 16.636 36.005 29.054 8.712 12.327 13.207 26.506 13.485 42.539H843.61Zm191.81 210.61c-21.41 0-39.9-4.448-55.469-13.345-15.478-8.99-27.387-21.687-35.728-38.091-8.341-16.496-12.511-35.912-12.511-58.248 0-21.964 4.17-41.241 12.511-57.83 8.434-16.682 20.204-29.657 35.311-38.925 15.106-9.361 32.856-14.041 53.246-14.041 13.16 0 25.58 2.132 37.25 6.395 11.77 4.171 22.15 10.658 31.14 19.462 9.09 8.805 16.22 20.019 21.41 33.642 5.19 13.531 7.79 29.657 7.79 48.378v15.431H955.345v-33.92h126.785c-.09-9.639-2.18-18.211-6.26-25.718-4.08-7.6-9.78-13.577-17.1-17.933-7.23-4.356-15.66-6.534-25.3-6.534-10.29 0-19.32 2.502-27.11 7.507-7.781 4.912-13.852 11.399-18.207 19.462-4.264 7.97-6.442 16.728-6.534 26.274v29.611c0 12.419 2.27 23.077 6.812 31.974 4.541 8.804 10.889 15.569 19.049 20.296 8.15 4.634 17.7 6.951 28.63 6.951 7.32 0 13.95-1.02 19.88-3.059 5.93-2.131 11.08-5.236 15.43-9.314 4.36-4.077 7.65-9.128 9.87-15.152l46.99 5.282c-2.96 12.419-8.62 23.262-16.96 32.53-8.25 9.175-18.81 16.311-31.69 21.409-12.89 5.004-27.62 7.506-44.21 7.506Zm198.97.14c-13.54 0-25.72-2.41-36.57-7.229-10.75-4.912-19.27-12.141-25.57-21.687-6.21-9.546-9.32-21.316-9.32-35.31 0-12.048 2.23-22.011 6.67-29.889 4.45-7.877 10.52-14.179 18.22-18.906 7.69-4.726 16.35-8.295 25.99-10.704 9.73-2.503 19.79-4.31 30.17-5.422 12.51-1.297 22.66-2.456 30.44-3.475 7.79-1.112 13.44-2.781 16.96-5.005 3.62-2.317 5.42-5.885 5.42-10.704v-.834c0-10.473-3.1-18.582-9.31-24.328-6.21-5.746-15.15-8.619-26.83-8.619-12.33 0-22.1 2.688-29.33 8.063-7.14 5.375-11.96 11.724-14.46 19.045l-46.99-6.673c3.71-12.975 9.83-23.818 18.35-32.53 8.53-8.804 18.95-15.384 31.28-19.74 12.33-4.448 25.95-6.673 40.87-6.673 10.29 0 20.53 1.205 30.72 3.615 10.2 2.409 19.51 6.394 27.95 11.955 8.43 5.468 15.2 12.929 20.29 22.382 5.19 9.453 7.79 21.269 7.79 35.449V416h-48.38v-29.332h-1.67c-3.06 5.931-7.37 11.492-12.93 16.681-5.46 5.098-12.37 9.222-20.71 12.373-8.25 3.058-17.93 4.588-29.05 4.588Zm13.06-36.979c10.1 0 18.86-1.992 26.28-5.978 7.41-4.077 13.11-9.453 17.1-16.126 4.07-6.672 6.11-13.948 6.11-21.825V314.24c-1.57 1.297-4.26 2.502-8.06 3.614-3.71 1.112-7.88 2.086-12.51 2.92-4.64.834-9.22 1.575-13.76 2.224-4.55.649-8.48 1.205-11.82 1.668-7.51 1.02-14.23 2.688-20.16 5.005-5.93 2.317-10.61 5.56-14.04 9.731-3.43 4.078-5.14 9.36-5.14 15.848 0 9.268 3.38 16.265 10.15 20.991 6.76 4.727 15.38 7.09 25.85 7.09Zm200.6-252.037V416h-50.32V131.294h50.32Zm144.89 288.876c-20.85 0-38.92-4.587-54.21-13.762s-27.16-22.011-35.59-38.508c-8.34-16.496-12.51-35.773-12.51-57.831 0-22.057 4.17-41.38 12.51-57.969 8.43-16.59 20.3-29.472 35.59-38.647 15.29-9.175 33.36-13.763 54.21-13.763 20.86 0 38.93 4.588 54.22 13.763s27.11 22.057 35.45 38.647c8.43 16.589 12.65 35.912 12.65 57.969 0 22.058-4.22 41.335-12.65 57.831-8.34 16.497-20.16 29.333-35.45 38.508-15.29 9.175-33.36 13.762-54.22 13.762Zm.28-40.314c11.31 0 20.76-3.105 28.36-9.314 7.6-6.302 13.25-14.736 16.96-25.301 3.8-10.566 5.7-22.336 5.7-35.311 0-13.067-1.9-24.884-5.7-35.449-3.71-10.658-9.36-19.138-16.96-25.44-7.6-6.302-17.05-9.453-28.36-9.453-11.58 0-21.22 3.151-28.91 9.453-7.6 6.302-13.3 14.782-17.1 25.44-3.71 10.565-5.56 22.382-5.56 35.449 0 12.975 1.85 24.745 5.56 35.311 3.8 10.565 9.5 18.999 17.1 25.301 7.69 6.209 17.33 9.314 28.91 9.314Zm313.52-120.945-45.88 5.005c-1.29-4.634-3.56-8.99-6.81-13.068-3.15-4.077-7.41-7.368-12.79-9.87-5.37-2.502-11.95-3.753-19.74-3.753-10.47 0-19.28 2.27-26.41 6.812-7.04 4.541-10.52 10.426-10.43 17.655-.09 6.209 2.18 11.26 6.81 15.152 4.73 3.893 12.52 7.09 23.36 9.593l36.42 7.785c20.21 4.355 35.22 11.26 45.04 20.713 9.92 9.453 14.92 21.826 15.02 37.117-.1 13.439-4.03 25.301-11.82 35.589-7.69 10.194-18.4 18.164-32.11 23.91-13.72 5.746-29.47 8.619-47.27 8.619-26.13 0-47.17-5.467-63.11-16.403-15.94-11.029-25.44-26.367-28.5-46.015l49.07-4.726c2.23 9.638 6.95 16.913 14.18 21.825 7.23 4.912 16.64 7.368 28.22 7.368 11.96 0 21.55-2.456 28.78-7.368 7.32-4.912 10.98-10.982 10.98-18.211 0-6.117-2.36-11.168-7.09-15.153-4.63-3.985-11.86-7.043-21.69-9.175l-36.42-7.646c-20.48-4.263-35.63-11.446-45.46-21.547-9.82-10.195-14.69-23.077-14.59-38.647-.1-13.16 3.47-24.56 10.7-34.198 7.32-9.731 17.47-17.238 30.45-22.521 13.06-5.375 28.12-8.063 45.18-8.063 25.02 0 44.71 5.329 59.08 15.987 14.46 10.658 23.4 25.069 26.83 43.234Z"
  />
  <defs>
    <linearGradient
      id="a"
      x1="167.837"
      x2="-23.469"
      y1="34.563"
      y2="335.135"
      gradientUnits="userSpaceOnUse"
    >
      <stop stop-color="#0AA3F9" />
      <stop offset="1" stop-color="#B5B4FF" />
    </linearGradient>
    <linearGradient
      id="b"
      x1="551.346"
      x2="246.112"
      y1="497.045"
      y2="107.841"
      gradientUnits="userSpaceOnUse"
    >
      <stop stop-color="#0AA3F9" />
      <stop offset="1" stop-color="#B5B4FF" />
    </linearGradient>
    <linearGradient
      id="c"
      x1="379.802"
      x2="97.75"
      y1="119.595"
      y2="406.764"
      gradientUnits="userSpaceOnUse"
    >
      <stop stop-color="#7ABBFD" />
      <stop offset="1" stop-color="#7ABBFD" stop-opacity="0" />
    </linearGradient>
  </defs>
</svg>

<svg width="1928" height="548" viewBox="0 0 1928 548" fill="none" xmlns="http://www.w3.org/2000/svg">
<path d="M111.487 258.028C140.802 300.889 201.452 297.085 201.452 297.085C186.29 282.375 176.434 268.934 175.423 230.638C174.412 192.343 152.679 182.198 152.679 182.198C191.597 157.598 177.698 130.968 176.434 101.296C175.676 82.7821 186.542 69.0871 195.135 61.2251C145.681 68.6594 100.995 94.9628 70.3922 134.652C39.7896 174.341 25.6325 224.352 30.8723 274.259C34.4103 264.369 84.4471 218.465 111.487 258.028Z" fill="url(#paint0_linear_384_62)"/>
<path d="M470.585 181.693C469.278 177.525 467.673 173.456 465.784 169.519V169.266C456.964 151.258 442.341 136.769 424.286 128.149C406.232 119.529 385.805 117.283 366.318 121.775C346.832 126.268 329.43 137.235 316.934 152.899C304.438 168.563 297.582 188.004 297.478 208.069C297.479 214.379 298.157 220.671 299.5 226.836C299.506 226.92 299.506 227.005 299.5 227.089C300.005 229.626 300.763 232.162 301.521 234.698C306.032 252.563 306.909 271.158 304.102 289.371C301.294 307.585 294.859 325.044 285.181 340.707C275.502 356.369 262.778 369.915 247.769 380.534C232.759 391.154 215.771 398.629 197.82 402.516C179.868 406.402 161.32 406.618 143.283 403.153C125.246 399.687 108.09 392.61 92.8378 382.344C77.586 372.078 64.5515 358.833 54.5122 343.401C44.4729 327.969 37.6346 310.664 34.4054 292.521C38.9718 323.971 50.0683 354.108 66.9764 380.98C83.8846 407.853 106.228 430.863 132.559 448.52C158.89 466.177 188.623 478.088 219.832 483.482C251.042 488.876 283.032 487.633 313.732 479.832C344.432 472.032 373.157 457.848 398.049 438.199C422.94 418.551 443.443 393.876 458.229 365.771C473.015 337.666 481.755 306.758 483.884 275.049C486.012 243.339 481.482 211.534 470.585 181.693Z" fill="url(#paint1_linear_384_62)"/>
<path fill-rule="evenodd" clip-rule="evenodd" d="M432.935 242.812C432.935 353.324 343.665 442.912 233.545 442.912C175.092 442.912 122.513 417.669 86.0426 377.453C88.2576 379.15 90.5267 380.781 92.847 382.343C108.099 392.609 125.255 399.686 143.292 403.151C161.329 406.617 179.877 406.4 197.829 402.514C215.781 398.628 232.768 391.152 247.778 380.533C262.787 369.914 275.511 356.368 285.19 340.705C294.869 325.043 301.304 307.584 304.111 289.37C306.919 271.157 306.041 252.562 301.531 234.697C300.773 232.16 300.015 229.624 299.509 227.088C299.515 227.004 299.515 226.919 299.509 226.835C298.167 220.67 297.489 214.378 297.487 208.067C297.592 188.002 304.448 168.561 316.944 152.898C329.439 137.234 346.842 126.266 366.328 121.774C374.365 119.921 382.561 119.214 390.686 119.628C417.157 153.59 432.935 196.352 432.935 242.812Z" fill="url(#paint2_linear_384_62)"/>
<path d="M843.61 209.56C842.313 197.42 836.845 187.967 827.206 181.201C817.66 174.436 805.242 171.053 789.95 171.053C779.199 171.053 769.978 172.675 762.285 175.918C754.593 179.162 748.708 183.564 744.63 189.125C740.552 194.686 738.467 201.034 738.375 208.17C738.375 214.102 739.718 219.245 742.406 223.601C745.186 227.957 748.94 231.664 753.666 234.722C758.393 237.688 763.629 240.19 769.375 242.229C775.121 244.268 780.914 245.983 786.752 247.373L813.443 254.046C824.194 256.548 834.528 259.931 844.444 264.194C854.453 268.457 863.397 273.832 871.274 280.32C879.245 286.807 885.547 294.639 890.181 303.814C894.815 312.989 897.131 323.739 897.131 336.065C897.131 352.747 892.868 367.437 884.342 380.134C875.816 392.738 863.489 402.608 847.364 409.744C831.33 416.788 811.914 420.31 789.116 420.31C766.966 420.31 747.735 416.88 731.424 410.022C715.205 403.164 702.508 393.155 693.333 379.995C684.251 366.834 679.339 350.801 678.597 331.895H729.338C730.08 341.812 733.138 350.06 738.514 356.64C743.889 363.22 750.886 368.132 759.505 371.376C768.217 374.619 777.948 376.241 788.699 376.241C799.913 376.241 809.736 374.573 818.17 371.237C826.696 367.808 833.369 363.081 838.188 357.057C843.008 350.94 845.464 343.804 845.556 335.648C845.464 328.234 843.286 322.118 839.023 317.298C834.759 312.386 828.782 308.309 821.089 305.065C813.49 301.728 804.593 298.763 794.398 296.168L762.007 287.827C738.56 281.803 720.024 272.674 706.401 260.441C692.87 248.114 686.104 231.757 686.104 211.368C686.104 194.593 690.646 179.904 699.728 167.299C708.903 154.695 721.368 144.918 737.123 137.967C752.879 130.923 770.719 127.402 790.645 127.402C810.849 127.402 828.55 130.923 843.749 137.967C859.041 144.918 871.043 154.603 879.754 167.021C888.466 179.348 892.961 193.527 893.239 209.56H843.61ZM1035.42 420.17C1014.01 420.17 995.52 415.722 979.951 406.825C964.473 397.835 952.564 385.138 944.223 368.734C935.882 352.238 931.712 332.822 931.712 310.486C931.712 288.522 935.882 269.245 944.223 252.656C952.657 235.974 964.427 222.999 979.534 213.731C994.64 204.37 1012.39 199.69 1032.78 199.69C1045.94 199.69 1058.36 201.822 1070.03 206.085C1081.8 210.256 1092.18 216.743 1101.17 225.547C1110.26 234.352 1117.39 245.566 1122.58 259.189C1127.77 272.72 1130.37 288.846 1130.37 307.567V322.998H955.345V289.078H1082.13C1082.04 279.439 1079.95 270.867 1075.87 263.36C1071.79 255.76 1066.09 249.783 1058.77 245.427C1051.54 241.071 1043.11 238.893 1033.47 238.893C1023.18 238.893 1014.15 241.395 1006.36 246.4C998.579 251.312 992.508 257.799 988.153 265.862C983.889 273.832 981.711 282.59 981.619 292.136V321.747C981.619 334.166 983.889 344.824 988.431 353.721C992.972 362.525 999.32 369.29 1007.48 374.017C1015.63 378.651 1025.18 380.968 1036.11 380.968C1043.43 380.968 1050.06 379.948 1055.99 377.909C1061.92 375.778 1067.07 372.673 1071.42 368.595C1075.78 364.518 1079.07 359.467 1081.29 353.443L1128.28 358.725C1125.32 371.144 1119.66 381.987 1111.32 391.255C1103.07 400.43 1092.51 407.566 1079.63 412.664C1066.74 417.668 1052.01 420.17 1035.42 420.17ZM1234.39 420.31C1220.85 420.31 1208.67 417.9 1197.82 413.081C1187.07 408.169 1178.55 400.94 1172.25 391.394C1166.04 381.848 1162.93 370.078 1162.93 356.084C1162.93 344.036 1165.16 334.073 1169.6 326.195C1174.05 318.318 1180.12 312.016 1187.82 307.289C1195.51 302.563 1204.17 298.994 1213.81 296.585C1223.54 294.082 1233.6 292.275 1243.98 291.163C1256.49 289.866 1266.64 288.707 1274.42 287.688C1282.21 286.576 1287.86 284.907 1291.38 282.683C1295 280.366 1296.8 276.798 1296.8 271.979V271.145C1296.8 260.672 1293.7 252.563 1287.49 246.817C1281.28 241.071 1272.34 238.198 1260.66 238.198C1248.33 238.198 1238.56 240.886 1231.33 246.261C1224.19 251.636 1219.37 257.985 1216.87 265.306L1169.88 258.633C1173.59 245.658 1179.71 234.815 1188.23 226.103C1196.76 217.299 1207.18 210.719 1219.51 206.363C1231.84 201.915 1245.46 199.69 1260.38 199.69C1270.67 199.69 1280.91 200.895 1291.1 203.305C1301.3 205.714 1310.61 209.699 1319.05 215.26C1327.48 220.728 1334.25 228.189 1339.34 237.642C1344.53 247.095 1347.13 258.911 1347.13 273.091V416H1298.75V386.668H1297.08C1294.02 392.599 1289.71 398.16 1284.15 403.349C1278.69 408.447 1271.78 412.571 1263.44 415.722C1255.19 418.78 1245.51 420.31 1234.39 420.31ZM1247.45 383.331C1257.55 383.331 1266.31 381.339 1273.73 377.353C1281.14 373.276 1286.84 367.9 1290.83 361.227C1294.9 354.555 1296.94 347.279 1296.94 339.402V314.24C1295.37 315.537 1292.68 316.742 1288.88 317.854C1285.17 318.966 1281 319.94 1276.37 320.774C1271.73 321.608 1267.15 322.349 1262.61 322.998C1258.06 323.647 1254.13 324.203 1250.79 324.666C1243.28 325.686 1236.56 327.354 1230.63 329.671C1224.7 331.988 1220.02 335.231 1216.59 339.402C1213.16 343.48 1211.45 348.762 1211.45 355.25C1211.45 364.518 1214.83 371.515 1221.6 376.241C1228.36 380.968 1236.98 383.331 1247.45 383.331ZM1448.05 131.294V416H1397.73V131.294H1448.05ZM1592.94 420.17C1572.09 420.17 1554.02 415.583 1538.73 406.408C1523.44 397.233 1511.57 384.397 1503.14 367.9C1494.8 351.404 1490.63 332.127 1490.63 310.069C1490.63 288.012 1494.8 268.689 1503.14 252.1C1511.57 235.51 1523.44 222.628 1538.73 213.453C1554.02 204.278 1572.09 199.69 1592.94 199.69C1613.8 199.69 1631.87 204.278 1647.16 213.453C1662.45 222.628 1674.27 235.51 1682.61 252.1C1691.04 268.689 1695.26 288.012 1695.26 310.069C1695.26 332.127 1691.04 351.404 1682.61 367.9C1674.27 384.397 1662.45 397.233 1647.16 406.408C1631.87 415.583 1613.8 420.17 1592.94 420.17ZM1593.22 379.856C1604.53 379.856 1613.98 376.751 1621.58 370.542C1629.18 364.24 1634.83 355.806 1638.54 345.241C1642.34 334.675 1644.24 322.905 1644.24 309.93C1644.24 296.863 1642.34 285.046 1638.54 274.481C1634.83 263.823 1629.18 255.343 1621.58 249.041C1613.98 242.739 1604.53 239.588 1593.22 239.588C1581.64 239.588 1572 242.739 1564.31 249.041C1556.71 255.343 1551.01 263.823 1547.21 274.481C1543.5 285.046 1541.65 296.863 1541.65 309.93C1541.65 322.905 1543.5 334.675 1547.21 345.241C1551.01 355.806 1556.71 364.24 1564.31 370.542C1572 376.751 1581.64 379.856 1593.22 379.856ZM1906.74 258.911L1860.86 263.916C1859.57 259.282 1857.3 254.926 1854.05 250.848C1850.9 246.771 1846.64 243.48 1841.26 240.978C1835.89 238.476 1829.31 237.225 1821.52 237.225C1811.05 237.225 1802.24 239.495 1795.11 244.037C1788.07 248.578 1784.59 254.463 1784.68 261.692C1784.59 267.901 1786.86 272.952 1791.49 276.844C1796.22 280.737 1804.01 283.934 1814.85 286.437L1851.27 294.222C1871.48 298.577 1886.49 305.482 1896.31 314.935C1906.23 324.388 1911.23 336.761 1911.33 352.052C1911.23 365.491 1907.3 377.353 1899.51 387.641C1891.82 397.835 1881.11 405.805 1867.4 411.551C1853.68 417.297 1837.93 420.17 1820.13 420.17C1794 420.17 1772.96 414.703 1757.02 403.767C1741.08 392.738 1731.58 377.4 1728.52 357.752L1777.59 353.026C1779.82 362.664 1784.54 369.939 1791.77 374.851C1799 379.763 1808.41 382.219 1819.99 382.219C1831.95 382.219 1841.54 379.763 1848.77 374.851C1856.09 369.939 1859.75 363.869 1859.75 356.64C1859.75 350.523 1857.39 345.472 1852.66 341.487C1848.03 337.502 1840.8 334.444 1830.97 332.312L1794.55 324.666C1774.07 320.403 1758.92 313.22 1749.09 303.119C1739.27 292.924 1734.4 280.042 1734.5 264.472C1734.4 251.312 1737.97 239.912 1745.2 230.274C1752.52 220.543 1762.67 213.036 1775.65 207.753C1788.71 202.378 1803.77 199.69 1820.83 199.69C1845.85 199.69 1865.54 205.019 1879.91 215.677C1894.37 226.335 1903.31 240.746 1906.74 258.911Z" fill="#111824"/>
<defs>
<linearGradient id="paint0_linear_384_62" x1="167.837" y1="34.563" x2="-23.4686" y2="335.135" gradientUnits="userSpaceOnUse">
<stop stop-color="#0AA3F9"/>
<stop offset="1" stop-color="#B5B4FF"/>
</linearGradient>
<linearGradient id="paint1_linear_384_62" x1="551.346" y1="497.045" x2="246.112" y2="107.841" gradientUnits="userSpaceOnUse">
<stop stop-color="#0AA3F9"/>
<stop offset="1" stop-color="#B5B4FF"/>
</linearGradient>
<linearGradient id="paint2_linear_384_62" x1="379.802" y1="119.595" x2="97.7502" y2="406.764" gradientUnits="userSpaceOnUse">
<stop stop-color="#7ABBFD"/>
<stop offset="1" stop-color="#7ABBFD" stop-opacity="0"/>
</linearGradient>
</defs>
</svg>
